X: 141001
Q: "Slow with expression."
M: C
L: 1/16
K: D
uD4 |\
.F2.G2.A2.B2 =c3AG3A | (G3(3AGF) "^>"D2"^>"D2 HD4 uD4 |\
(d3(3e/d/^c/) d=cAF GAGF D3E |\
.F2.G2 A2Hfe d3^c AGFA | GAGF "_>"D2"_>"D2 HD4 |]\
uA4 |\
d3ef2g2 "^>"a3gf2a2 | (g3(3a/g/f/) g2a2 (3(gagf2) Hd2 A2 |
d3ef2g2 "^>"a3gf2a2 | (g3(3a/g/f/) "^>"d2"^>"d2 Hd4 zu.e.f.g |\
"^>"a3gf2a2 g4 {ag}f2e2 | d3(e/d/c/) d2e2 H=f4 H^f3e |\
d3^cA2F2 G3B A2G2 | F4 "_>"D2"_>"D2 H"_>"D4 |]


